!!!OTL-incipit: ES GING EIN MAEDCHEN GRASEN
!!!ARE: Europa, Mitteleuropa, Deutschland, Herzogtum Berg
!!!SCT: Z0237
!!!TXL: @@DE
!!!YEM: Copyright 1995, estate of Helmut Schaffrath.
**kern	**text
*ICvox	*
*M4/4	*
*met(c)	*
*k[f#]	*
*G:	*
!LO:TX:a:t=Bergiſch.	!
{4d	Es
=1	=1
4.g	ging
8a	ein
8bL	Mäd-
8ccJ	.
4dd	-chen
=2	=2
4ee	gra-
4cc	-ſen
4r}	.
{4dd	wohl
=3	=3
4ee	in
4ff#	den
4gg	grü-
8ff#L	-nen
8eeJ	.
=4	=4
4dd	Klee,
4r	.
4r}	.
{8dd	was
8dd	be-
=5	=5
4gg	-geg-
4dd	-net
8ddL	ihr
8ccJ	.
8b	auf
8cc	der
=6	=6
4ee	Hai-
4dd	-de,
4r}	.
{8dd	ri-
8cc	-de-
=7	=7
8b	-ral-
8b	-la
8b	la
8b	la
8cc	la
8b	la
8cc	la
8a	la
=8	=8
(4b	la
4cc)	.
4dd}	la,
{8eeL	ein
8ff#J	.
=9	=9
4gg	Jä-
8ddL	-ger,
8ccJ	.
4.b/	der
8a	war
=10	=10
4g	ſchön.
4r	.
4r}	.
==	==
!!!AGN: Jaeger - Lied (Maedchen will als Knabe geboren sein, um Jaeger werden, zu koennen.)
!!!ONB: ESAC (Essen Associative Code) Database: ZUCCAL
!!!AMT: simple quadruple
!!!AIN: vox
!!!EED: Helmut Schaffrath
!!!EEV: 1.0
!!!GTL: III. Soldaten-, Jaeger-, Schiffer-, Fuhrmanns- und Handwerks-Lieder.
!!!URL-scan: https://www.digitale-sammlungen.de/de/view/bsb11160571?page=442
!!!ENC: Anna Maria Matuszewska
!!!EEV: 2025/01/29
*-	*-
